X: 4443
T: "SWEET DREAMS" VALSE
C: Rose Smith
R: Waltz
%R: waltz
B: James Kerr "Merry Melodies" v.4 p.43 #443
Z: 2016 John Chambers <jc:trillian.mit.edu>
M: 3/4
L: 1/4
K: C
|: !p!\
G3 | (A2E) | G3- | G2c |\
(c2B) | (d3c) | B3 | A3 |\
[1 A3 | (^G2A) | d3- | d2d |\
(d2A) | (B2c) | (c2B) | A2_A :|\
[2 (g3 | f3) | (e3 | G3) |
(ABc) | (d2c) | c3- | c2z H|: !f!\
e/e/dG | e2d | G2A | G3 |\
f/f/ed | e2d | G2A | G3 |\
g/g/fe | gfe | (ABc) | (dcA) |\
(G2c) | ded | (d3 | "_D.C."c3) :|

%%sep 1 1 500
%%sep 1 1 500

